apps/scalable/poedit.svg

<svg xmlns="http://www.w3.org/2000/svg" style="isolation:isolate" width="256" height="256"><defs><filter id="a" width="270.648" height="254.338" x="-7.32" y="2.95" filterUnits="userSpaceOnUse"><feGaussianBlur xmlns="http://www.w3.org/2000/svg" in="SourceGraphic" stdDeviation="4.294"/><feOffset xmlns="http://www.w3.org/2000/svg" dy="4" result="pf_100_offsetBlur"/><feFlood xmlns="http://www.w3.org/2000/svg" flood-opacity=".4"/><feComposite xmlns="http://www.w3.org/2000/svg" in2="pf_100_offsetBlur" operator="in" result="pf_100_dropShadow"/><feBlend xmlns="http://www.w3.org/2000/svg" in="SourceGraphic" in2="pf_100_dropShadow"/></filter></defs><g filter="url(#a)"><linearGradient id="b" x1=".233" x2=".933" y1="-.071" y2=".995" gradientTransform="matrix(244.648 0 0 228.338 5.676 11.947)" gradientUnits="userSpaceOnUse"><stop offset="0%" stop-opacity=".996" stop-color="#c58d67"/><stop offset="100%" stop-opacity=".996" stop-color="#e6aa81"/></linearGradient><path fill="url(#b)" d="M165.685 11.947c74.055 0 84.639 10.557 84.639 84.544v59.251c0 73.986-10.584 84.543-84.639 84.543h-75.37c-74.055 0-84.639-10.557-84.639-84.543V96.491c0-73.987 10.584-84.544 84.639-84.544h75.37z"/></g><g opacity=".4"><linearGradient id="c" x1=".517" x2=".517" y2="1"><stop offset="0%" stop-color="#fff"/><stop offset="12.5%" stop-opacity=".098" stop-color="#fff"/><stop offset="92.5%" stop-opacity=".098"/><stop offset="100%" stop-opacity=".498"/></linearGradient><path fill="none" stroke="url(#c)" stroke-linecap="round" stroke-linejoin="round" stroke-width="4.077" d="M165.685 11.947c74.055 0 84.639 10.557 84.639 84.544v59.251c0 73.986-10.584 84.543-84.639 84.543h-75.37c-74.055 0-84.639-10.557-84.639-84.543V96.491c0-73.987 10.584-84.544 84.639-84.544h75.37z" vector-effect="non-scaling-stroke"/></g><path fill="#FFF" d="M5.676 126.116v29.626c0 73.986 10.584 84.543 84.639 84.543h75.37c74.055 0 84.639-10.557 84.639-84.543v-29.626H5.676z" opacity=".1"/><path fill="#FFF" d="M128 11.947v228.338h37.685c74.055 0 84.639-10.557 84.639-84.543V96.491c0-73.987-10.584-84.544-84.639-84.544H128z" opacity=".2"/><g filter="url(#d)"><path fill="#FCFCFC" d="M161.742 24.777c66.307 0 75.783 9.452 75.783 75.697v53.052c0 66.245-9.476 75.697-75.783 75.697H94.258c-66.307 0-75.783-9.452-75.783-75.697v-53.052c0-66.245 9.476-75.697 75.783-75.697h67.484z"/><path stroke="#000" stroke-width="2" vector-effect="non-scaling-stroke" d="M20 86.884h215" opacity=".2"/><path fill="none" stroke="#000" stroke-width="2" d="M20 166.884h215" vector-effect="non-scaling-stroke" opacity=".2"/><path fill="#F22C42" d="M40.45 214.627c-1.164-1.164.107-4.009 1.798-4.024.595-.005 1.937-2.907 4.495-9.721l3.647-9.713-2.151-.312c-2.604-.377-3.377-1.062-3.135-2.773.18-1.276.277-1.296 6.45-1.296h6.268l4.685 11.662c3.789 9.43 4.948 11.791 6.055 12.338 1.002.495 1.369 1.114 1.369 2.303v1.627l-5.468.158c-4.668.135-5.569.02-6.161-.789-.381-.521-.693-1.129-.693-1.351 0-.877 1.793-2.125 3.051-2.125 1.562 0 1.566-.02.537-2.482l-.794-1.899h-5.416c-5.273 0-5.434.035-6.052 1.394-.982 2.155-.788 2.987.694 2.987 2.347 0 3.823 2.295 2.394 3.724-.7.7-10.907.958-11.573.292zm18.255-12.958c0-.308-2.825-7.161-3.388-8.219-.294-.553-.624-.916-.733-.808-.109.109-.945 2.225-1.858 4.702l-1.661 4.504h3.82c2.101 0 3.82-.081 3.82-.179zm-7.098-20.04c-3.151-1.145-5.968-2.46-6.261-2.924-.597-.948.869-3.691 1.973-3.691.474 0 11.403 6.048 12.357 6.838.082.068-.006.529-.196 1.024-.482 1.258-1.365 1.118-7.873-1.247z"/><path fill="#2B898F" d="M63.102 139.892c-4.994-1.352-9.079-7.326-9.079-13.278 0-1.532-.163-1.647-2.337-1.647h-2.337v5.565c0 5.439.034 5.578 1.501 6.136 1.101.419 1.451.92 1.314 1.884-.179 1.262-.416 1.314-6.029 1.314-5.587 0-5.851-.057-6.027-1.294-.139-.978.184-1.386 1.326-1.673l1.509-.379-.157-12.934c-.157-12.914-.159-12.934-1.471-13.121-.952-.135-1.315-.579-1.315-1.606 0-1.414.027-1.421 6.135-1.421h6.135v1.461c0 1.067-.312 1.461-1.157 1.461-1.489 0-1.871 1.56-1.648 6.731l.176 4.078 2.191.181c1.819.151 2.191-.004 2.191-.916 0-.604.423-2.524.941-4.267 1.636-5.509 6.616-9.306 12.205-9.306 5.127 0 9.234 2.773 11.451 7.731 1.158 2.589 1.375 4.035 1.38 9.206.005 5.149-.207 6.601-1.322 9.035-1.627 3.551-2.727 4.81-5.374 6.142-2.936 1.478-6.835 1.829-10.202.917zm7.102-3.531c2.294-1.606 3.393-5.78 3.385-12.855-.011-9.599-1.813-13.146-6.681-13.146-4.315 0-6.416 4.229-6.444 12.971-.019 6.255.943 10.279 2.936 12.272 1.864 1.863 4.765 2.187 6.804.758z"/><path fill="#8C59D9" d="M47.81 78.614c-.212-.212-.385-3.081-.385-6.376v-5.991l-3.129 3.346c-2.451 2.62-3.283 3.195-3.839 2.653-.558-.546-.273-1.526 1.341-4.617 1.594-3.051 4.473-10.799 4.473-12.036 0-.109-1.362-.276-3.025-.372-2.338-.135-3.068-.404-3.217-1.185-.167-.879.3-1.01 3.602-1.01h3.794V47.277l-2.742.37c-4.07.551-4.326.537-4.603-.248-.148-.421.787-1.173 2.247-1.807 4.871-2.113 8.876-4.054 10.979-5.322l2.13-1.284 2.635 1.97c1.765 1.32 2.556 2.302 2.397 2.977-.355 1.517 4.182 3.321 8.353 3.321 2.796 0 3.504-.21 4.239-1.26.778-1.11 1.045-1.173 2.246-.531.75.401 2.12 1.357 3.046 2.124 1.567 1.298 1.614 1.448.673 2.181-.908.708-1.01 2.08-1.01 13.546 0 12.023-.065 12.792-1.117 13.355-.614.329-1.896.598-2.849.598-1.533 0-1.754-.216-1.914-1.876-.177-1.838-.237-1.876-3.03-1.876-2.716 0-2.871.086-3.324 1.833-.362 1.4-.948 1.989-2.478 2.494-1.102.364-2.268.498-2.592.298-.332-.206-.588-2.721-.588-5.777v-5.412l-2.036.33c-1.951.317-2.075.231-2.967-2.04-.512-1.304-1.155-2.233-1.427-2.064-.273.169-.496 3.528-.496 7.467 0 6.488-.105 7.216-1.117 7.757-1.259.674-3.688.795-4.27.213zm24.301-18.229l.157-10.822h-6.374v10.582c0 5.819.185 10.766.412 10.992.226.226 1.589.335 3.03.241l2.618-.171.157-10.822zm-11.988-1.876v-3.174H56.66c-3.308 0-3.463.065-3.463 1.44 0 1.141.539 1.694 2.604 2.664 1.433.674 2.747 1.454 2.92 1.735.82 1.326 1.402.22 1.402-2.665zm-4.941-7.34c.87-1.242.946-1.251 2.575-.288.923.545 1.833.991 2.022.991.189 0 .344-1.528.344-3.395 0-3.085-.122-3.419-1.327-3.65-.73-.139-2.223.046-3.319.415-1.925.645-1.998.778-2.165 3.938-.185 3.496.388 4.106 1.87 1.989z"/></g><defs><filter id="d" width="255" height="236.447" x="0" y="10.78" filterUnits="userSpaceOnUse"><feGaussianBlur xmlns="http://www.w3.org/2000/svg" in="SourceGraphic" stdDeviation="2.147"/><feOffset xmlns="http://www.w3.org/2000/svg" dy="2" result="pf_100_offsetBlur"/><feFlood xmlns="http://www.w3.org/2000/svg" flood-opacity=".4"/><feComposite xmlns="http://www.w3.org/2000/svg" in2="pf_100_offsetBlur" operator="in" result="pf_100_dropShadow"/><feBlend xmlns="http://www.w3.org/2000/svg" in="SourceGraphic" in2="pf_100_dropShadow"/></filter></defs><path d="M250.324 163.827l-77.398 76.458" opacity=".4"/></svg>

<svg xmlns="http://www.w3.org/2000/svg" style="isolation:isolate" width="256" height="256" viewBox="0 0 256 256">
 <defs>
  <filter id="bIXu6XFXXaDxNa81RGk3ikatW8W2bWYZ" width="270.648" height="254.338" x="-7.32" y="2.95" filterUnits="userSpaceOnUse">
   <feGaussianBlur xmlns="http://www.w3.org/2000/svg" in="SourceGraphic" stdDeviation="4.294"/>
   <feOffset xmlns="http://www.w3.org/2000/svg" dx="0" dy="4" result="pf_100_offsetBlur"/>
   <feFlood xmlns="http://www.w3.org/2000/svg" flood-opacity=".4"/>
   <feComposite xmlns="http://www.w3.org/2000/svg" in2="pf_100_offsetBlur" operator="in" result="pf_100_dropShadow"/>
   <feBlend xmlns="http://www.w3.org/2000/svg" in="SourceGraphic" in2="pf_100_dropShadow" mode="normal"/>
  </filter>
 </defs>
 <g filter="url(#bIXu6XFXXaDxNa81RGk3ikatW8W2bWYZ)">
  <linearGradient id="_lgradient_80" x1=".233" x2=".933" y1="-.071" y2=".995" gradientTransform="matrix(244.648,0,0,228.338,5.676,11.947)" gradientUnits="userSpaceOnUse">
   <stop offset="0%" stop-opacity=".996" style="stop-color:rgb(197,141,103)"/>
   <stop offset="100%" stop-opacity=".996" style="stop-color:rgb(230,170,129)"/>
  </linearGradient>
  <path fill="url(#_lgradient_80)" d="M 165.685 11.947 C 239.74 11.947 250.324 22.504 250.324 96.491 L 250.324 155.742 C 250.324 229.728 239.74 240.285 165.685 240.285 L 90.315 240.285 C 16.26 240.285 5.676 229.728 5.676 155.742 L 5.676 96.491 C 5.676 22.504 16.26 11.947 90.315 11.947 L 165.685 11.947 Z"/>
 </g>
 <g opacity=".4">
  <linearGradient id="_lgradient_81" x1=".517" x2=".517" y1="0" y2="1">
   <stop offset="0%" style="stop-color:rgb(255,255,255)"/>
   <stop offset="12.5%" stop-opacity=".098" style="stop-color:rgb(255,255,255)"/>
   <stop offset="92.5%" stop-opacity=".098" style="stop-color:rgb(0,0,0)"/>
   <stop offset="100%" stop-opacity=".498" style="stop-color:rgb(0,0,0)"/>
  </linearGradient>
  <path fill="none" stroke="url(#_lgradient_81)" stroke-linecap="round" stroke-linejoin="round" stroke-width="4.077" d="M 165.685 11.947 C 239.74 11.947 250.324 22.504 250.324 96.491 L 250.324 155.742 C 250.324 229.728 239.74 240.285 165.685 240.285 L 90.315 240.285 C 16.26 240.285 5.676 229.728 5.676 155.742 L 5.676 96.491 C 5.676 22.504 16.26 11.947 90.315 11.947 L 165.685 11.947 Z" vector-effect="non-scaling-stroke"/>
 </g>
 <g opacity=".1">
  <path fill="#FFFFFF" d="M 5.676 126.116 L 5.676 155.742 C 5.676 229.728 16.26 240.285 90.315 240.285 L 165.685 240.285 C 239.74 240.285 250.324 229.728 250.324 155.742 L 250.324 126.116 L 5.676 126.116 Z"/>
 </g>
 <g opacity=".2">
  <path fill="#FFFFFF" d="M 128 11.947 L 128 240.285 L 165.685 240.285 C 239.74 240.285 250.324 229.728 250.324 155.742 L 250.324 96.491 C 250.324 22.504 239.74 11.947 165.685 11.947 L 128 11.947 Z"/>
 </g>
 <g filter="url(#6ATPnREm2xr6ReVWilqxbXDiciObfCWT)">
  <path fill="#FCFCFC" d="M 161.742 24.777 C 228.049 24.777 237.525 34.229 237.525 100.474 L 237.525 153.526 C 237.525 219.771 228.049 229.223 161.742 229.223 L 94.258 229.223 C 27.951 229.223 18.475 219.771 18.475 153.526 L 18.475 100.474 C 18.475 34.229 27.951 24.777 94.258 24.777 L 161.742 24.777 Z"/>
  <g opacity=".2">
   <line stroke="#000000" stroke-width="2" x1="20" x2="235" y1="86.884" y2="86.884" vector-effect="non-scaling-stroke"/>
  </g>
  <g opacity=".2">
   <path fill="none" stroke="#000000" stroke-width="2" d="M 20 166.884 L 235 166.884 L 235 166.884 L 235 166.884" vector-effect="non-scaling-stroke"/>
  </g>
  <path fill="#F22C42" d="M 40.45 214.627 C 39.286 213.463 40.557 210.618 42.248 210.603 C 42.843 210.598 44.185 207.696 46.743 200.882 L 50.39 191.169 L 48.239 190.857 C 45.635 190.48 44.862 189.795 45.104 188.084 C 45.284 186.808 45.381 186.788 51.554 186.788 L 57.822 186.788 L 62.507 198.45 C 66.296 207.88 67.455 210.241 68.562 210.788 C 69.564 211.283 69.931 211.902 69.931 213.091 L 69.931 214.718 L 64.463 214.876 C 59.795 215.011 58.894 214.896 58.302 214.087 C 57.921 213.566 57.609 212.958 57.609 212.736 C 57.609 211.859 59.402 210.611 60.66 210.611 C 62.222 210.611 62.226 210.591 61.197 208.129 L 60.403 206.23 L 54.987 206.23 C 49.714 206.23 49.553 206.265 48.935 207.624 C 47.953 209.779 48.147 210.611 49.629 210.611 C 51.976 210.611 53.452 212.906 52.023 214.335 C 51.323 215.035 41.116 215.293 40.45 214.627 L 40.45 214.627 Z M 58.705 201.669 C 58.705 201.361 55.88 194.508 55.317 193.45 C 55.023 192.897 54.693 192.534 54.584 192.642 C 54.475 192.751 53.639 194.867 52.726 197.344 L 51.065 201.848 L 54.885 201.848 C 56.986 201.848 58.705 201.767 58.705 201.669 L 58.705 201.669 Z M 51.607 181.629 C 48.456 180.484 45.639 179.169 45.346 178.705 C 44.749 177.757 46.215 175.014 47.319 175.014 C 47.793 175.014 58.722 181.062 59.676 181.852 C 59.758 181.92 59.67 182.381 59.48 182.876 C 58.998 184.134 58.115 183.994 51.607 181.629 L 51.607 181.629 Z"/>
  <path fill="#2B898F" d="M 63.102 139.892 C 58.108 138.54 54.023 132.566 54.023 126.614 C 54.023 125.082 53.86 124.967 51.686 124.967 L 49.349 124.967 L 49.349 130.532 C 49.349 135.971 49.383 136.11 50.85 136.668 C 51.951 137.087 52.301 137.588 52.164 138.552 C 51.985 139.814 51.748 139.866 46.135 139.866 C 40.548 139.866 40.284 139.809 40.108 138.572 C 39.969 137.594 40.292 137.186 41.434 136.899 L 42.943 136.52 L 42.786 123.586 C 42.629 110.672 42.627 110.652 41.315 110.465 C 40.363 110.33 40 109.886 40 108.859 C 40 107.445 40.027 107.438 46.135 107.438 L 52.27 107.438 L 52.27 108.899 C 52.27 109.966 51.958 110.36 51.113 110.36 C 49.624 110.36 49.242 111.92 49.465 117.091 L 49.641 121.169 L 51.832 121.35 C 53.651 121.501 54.023 121.346 54.023 120.434 C 54.023 119.83 54.446 117.91 54.964 116.167 C 56.6 110.658 61.58 106.861 67.169 106.861 C 72.296 106.861 76.403 109.634 78.62 114.592 C 79.778 117.181 79.995 118.627 80 123.798 C 80.005 128.947 79.793 130.399 78.678 132.833 C 77.051 136.384 75.951 137.643 73.304 138.975 C 70.368 140.453 66.469 140.804 63.102 139.892 L 63.102 139.892 Z M 70.204 136.361 C 72.498 134.755 73.597 130.581 73.589 123.506 C 73.578 113.907 71.776 110.36 66.908 110.36 C 62.593 110.36 60.492 114.589 60.464 123.331 C 60.445 129.586 61.407 133.61 63.4 135.603 C 65.264 137.466 68.165 137.79 70.204 136.361 Z"/>
  <path fill="#8C59D9" d="M 47.81 78.614 C 47.598 78.402 47.425 75.533 47.425 72.238 L 47.425 66.247 L 44.296 69.593 C 41.845 72.213 41.013 72.788 40.457 72.246 C 39.899 71.7 40.184 70.72 41.798 67.629 C 43.392 64.578 46.271 56.83 46.271 55.593 C 46.271 55.484 44.909 55.317 43.246 55.221 C 40.908 55.086 40.178 54.817 40.029 54.036 C 39.862 53.157 40.329 53.026 43.631 53.026 L 47.425 53.026 L 47.425 50.151 L 47.425 47.277 L 44.683 47.647 C 40.613 48.198 40.357 48.184 40.08 47.399 C 39.932 46.978 40.867 46.226 42.327 45.592 C 47.198 43.479 51.203 41.538 53.306 40.27 L 55.436 38.986 L 58.071 40.956 C 59.836 42.276 60.627 43.258 60.468 43.933 C 60.113 45.45 64.65 47.254 68.821 47.254 C 71.617 47.254 72.325 47.044 73.06 45.994 C 73.838 44.884 74.105 44.821 75.306 45.463 C 76.056 45.864 77.426 46.82 78.352 47.587 C 79.919 48.885 79.966 49.035 79.025 49.768 C 78.117 50.476 78.015 51.848 78.015 63.314 C 78.015 75.337 77.95 76.106 76.898 76.669 C 76.284 76.998 75.002 77.267 74.049 77.267 C 72.516 77.267 72.295 77.051 72.135 75.391 C 71.958 73.553 71.898 73.515 69.105 73.515 C 66.389 73.515 66.234 73.601 65.781 75.348 C 65.419 76.748 64.833 77.337 63.303 77.842 C 62.201 78.206 61.035 78.34 60.711 78.14 C 60.379 77.934 60.123 75.419 60.123 72.363 L 60.123 66.951 L 58.087 67.281 C 56.136 67.598 56.012 67.512 55.12 65.241 C 54.608 63.937 53.965 63.008 53.693 63.177 C 53.42 63.346 53.197 66.705 53.197 70.644 C 53.197 77.132 53.092 77.86 52.08 78.401 C 50.821 79.075 48.392 79.196 47.81 78.614 L 47.81 78.614 Z M 72.111 60.385 L 72.268 49.563 L 69.081 49.563 L 65.894 49.563 L 65.894 60.145 C 65.894 65.964 66.079 70.911 66.306 71.137 C 66.532 71.363 67.895 71.472 69.336 71.378 L 71.954 71.207 L 72.111 60.385 Z M 60.123 58.509 L 60.123 55.335 L 56.66 55.335 C 53.352 55.335 53.197 55.4 53.197 56.775 C 53.197 57.916 53.736 58.469 55.801 59.439 C 57.234 60.113 58.548 60.893 58.721 61.174 C 59.541 62.5 60.123 61.394 60.123 58.509 L 60.123 58.509 Z M 55.182 51.169 C 56.052 49.927 56.128 49.918 57.757 50.881 C 58.68 51.426 59.59 51.872 59.779 51.872 C 59.968 51.872 60.123 50.344 60.123 48.477 C 60.123 45.392 60.001 45.058 58.796 44.827 C 58.066 44.688 56.573 44.873 55.477 45.242 C 53.552 45.887 53.479 46.02 53.312 49.18 C 53.127 52.676 53.7 53.286 55.182 51.169 L 55.182 51.169 Z"/>
 </g>
 <defs>
  <filter id="6ATPnREm2xr6ReVWilqxbXDiciObfCWT" width="255" height="236.447" x="0" y="10.78" filterUnits="userSpaceOnUse">
   <feGaussianBlur xmlns="http://www.w3.org/2000/svg" in="SourceGraphic" stdDeviation="2.147"/>
   <feOffset xmlns="http://www.w3.org/2000/svg" dx="0" dy="2" result="pf_100_offsetBlur"/>
   <feFlood xmlns="http://www.w3.org/2000/svg" flood-opacity=".4"/>
   <feComposite xmlns="http://www.w3.org/2000/svg" in2="pf_100_offsetBlur" operator="in" result="pf_100_dropShadow"/>
   <feBlend xmlns="http://www.w3.org/2000/svg" in="SourceGraphic" in2="pf_100_dropShadow" mode="normal"/>
  </filter>
 </defs>
 <g opacity=".4">
  <line x1="250.324" x2="172.926" y1="163.827" y2="240.285"/>
 </g>
</svg>
